**kern	**kern	**dynam
*part1	*part1	*part1
*staff2	*staff1	*
*I"Piano	*	*
*clefF4	*clefG2	*
*k[b-e-a-d-]	*k[b-e-a-d-]	*
=1	=1	=1
*^	*	*
8r	4.C	4e- 4an 4cc	<
(8AnL	.	.	.
8FJ)	.	16g#XLL 16bn	.
.	.	16aJJ 16cc	.
=	=	=	=
8r	4.BB-	8g-XL 8cc 8ee-	[
(8B-L	.	8f 8b- 8dd-	.
8FJ)	.	8d-J 8f 8b-	>
=	=	=	=
8r	4.C	4c 4en 4a-	.
(8A-L	.	.	.
8GJ)	.	8c) 8e 8g	.
=	=	=	=
8rBB	(4.AA-	(4A- 4c 4f	] <
(8FL	.	.	.
8CJ)	.	8A- 8c 8f	.
=	=	=	=
8r	4.AAn	4f 4dd- 4ff	[
(8AnL	.	.	.
8FJ)	.	8f 8cc 8ee-	.
=	=	=	=
8r	4BB-	4f 4b- 4dd-	.
4F	.	.	.
.	8C	8e- 8an 8cc	.
=	=	=	=
8r	4D-	4d- 4f 4b-	.
4F	.	.	.
.	8Dn)	8c-X) 8f 8a-	.
*v	*v	*	*
=	=	=
!	!LO:TX:b:i:t=rall.	!
8E-	(4cn 4e- 4a-	.
4EE-	.	.
.	8c-X 8dn 8f	<
=	=	=
8EEE-L 8EE-	4e- 4g 4cc 4ee-	[ >
(8cn	.	.
8E-J)	8d- 8g 8cc	.
=	=	=
*-	*-	*-
!!!system-decoration: {(s1,s2)}
